app/dist/common/images/kloeckner-and-co-se.svg

<svg height="18" viewBox="0 0 18 18" width="18" xmlns="http://www.w3.org/2000/svg"><path d="m0 0h18v18h-18z" fill="#cb0238"/><g fill="#fff"><path d="m5 9 1.7 2h1.3l-1.85-2.25 1.85-1.75h-1.3l-1.7 1.5v-3.5h-1v6h1z"/><path d="m7.62 9.04c0-1.11.81-2.04 2.15-2.04.37 0 .74.08 1.07.23l-.03.6a2.14 2.14 0 0 0 -1.04-.26c-.93 0-1.54.57-1.54 1.43 0 .95.66 1.43 1.54 1.43.36 0 .72-.1 1.04-.26l.19.48c-.4.23-.86.35-1.34.35-1.32 0-2.04-.88-2.04-1.96zm3.38-.04c0-1.12.78-2 2-2 1.2 0 2 .88 2 2s-.79 2-2 2-2-.88-2-2zm3.38 0c0-.88-.59-1.43-1.38-1.43-.8 0-1.38.55-1.38 1.43s.58 1.43 1.38 1.43 1.38-.55 1.38-1.43z"/></g></svg>

<!-- by TradingView --><svg width="18" height="18" viewBox="0 0 18 18" xmlns="http://www.w3.org/2000/svg"><path fill="#CB0238" d="M0 0h18v18H0z"/><path d="m5 9 1.7 2H8L6.15 8.75 8 7H6.7L5 8.5V5H4v6h1V9Z" fill="#fff"/><path d="M7.62 9.04C7.62 7.93 8.43 7 9.77 7c.37 0 .74.08 1.07.23l-.03.6a2.14 2.14 0 0 0-1.04-.26c-.93 0-1.54.57-1.54 1.43 0 .95.66 1.43 1.54 1.43.36 0 .72-.1 1.04-.26l.19.48c-.4.23-.86.35-1.34.35-1.32 0-2.04-.88-2.04-1.96ZM11 9c0-1.12.78-2 2-2 1.2 0 2 .88 2 2s-.79 2-2 2-2-.88-2-2Zm3.38 0c0-.88-.59-1.43-1.38-1.43-.8 0-1.38.55-1.38 1.43 0 .88.58 1.43 1.38 1.43.8 0 1.38-.55 1.38-1.43Z" fill="#fff"/></svg>
